X: 26
T:Bonnie Lad (#226), The
M:4/4
L:1/8
C:(Warpipe Style)
S:Capt. F. O'Neill
R:Reel
K:D
G|FEDF AdAF|(3GAB AF E2 EG|1FEDF AdAF|(3GAB AF D2 D:|
2dBcA BGAF||:(3GAB AF D2 D||:G|(3FED AD BDAD|(3FED AF E2 EG|
1(3FED AD BDAD|(3GAB AF D2 D:|
2dBcA BGAF|(3GAB AF D2 D||

